X: 1
T: Mario Underworld (Single)
Z: Nightwind of Windfola
G: Nintendo
I: Lute
M: 6/8
L: 1/8
Q: 1/4=140
K: Bb

C/2c/2A,/2A/2B,/2B/2 z3|C/2c/2A,/2A/2B,/2B/2 z3|F,/2F/2D,/2D/2E,/2E/2 z3|F,/2F/2D,/2D/2E,/2E/2 z2E/2_D/2|
CE=D _A,G,_D|C/2F/2=E/2A/2_A/2_E=B,/2_B,/2=A,_A,/2|z6|C/2c/2=A,/2=A/2B,/2B/2 z3|
C/2c/2A,/2A/2B,/2B/2 z3|F,/2F/2D,/2=D/2E,/2E/2 z3|F,/2F/2D,/2D/2E,/2E/2 z2E/2_D/2|CE=D _A,G,_D|
C/2F/2=E/2A/2_A/2_E=B,/2_B,/2=A,_A,/2|